X: 100
T: Liaowang zai shanding By the top of the mountain
L: 1/16
M: 2/4
K: C
C2 C D E2 G A [I:setbarnb 1]| 
G2 D EC4 | 
A,2 C D E2 G2 | 
D8 | 
E,2 G, A,D4 | 
C D C A,G,4 | 
E,2 D, E, A,2 C D | 
G,8 | 
C2 C D E2 G A | 
G2 D EC4 | 
A,2 C D E2 G2 | 
D8 | 
E,2 G, A,D4 | 
C D C A,G,4 | 
E,2 D, E, A,2 C D | 
G,8 |]

@@@ Tune index: 8768
